!!!!SEGMENT: pl-wtm--r-996-1--003_krogulski-jozef-wlladysllaw--nieszpory-beatus-vir.krn
!!!cenid: 18xx:2094
!!!COM: Krogulski, Józef Władysław
!!!COM-rismid: pe30001797
!!!CDT: 1815/10/04-1842/01/09
!!!CNT: Polish
!!!OPR: Nieszpory
!!!OTL: Beatus vir
!!!OMV: 003
!!!PDT: 1836
!!!AGN: Sacred; Vespers
!!!SMS-siglum: PL-Wtm
!!!SMS-shelfmark: R 996/1
!!!SMS-shelfwork: 001-003 M
!!!SMS-variant:
!!!SMS-altvar:
!!!NIFC-rismid: 1001086252
!!!URL-scan: http://repozytorium.nifc.pl/skany/pl-wtm-nut--r996
!!!ONB-nifc: UWAGA: części Nieszporów: 1. Dixit Dominus, 2. Confitebor tibi, 3. Beatus vir, 4. Laudate pueri, 5. Laudate Dominum,
!!!OMD: Allo moderato.
**kern	**kern	**dynam	**kern	**text	**dynam	**kern	**text	**dynam	**kern	**text	**dynam	**kern	**text	**dynam
*part5	*part5	*part5	*part4	*part4	*part4	*part3	*part3	*part3	*part2	*part2	*part2	*part1	*part1	*part1
*staff6	*staff5	*	*staff4	*staff4	*	*staff3	*staff3	*	*staff2	*staff2	*	*staff1	*staff1	*
*	*I"Organo.	*	*I"Basſo.	*	*	*I"Tenori	*	*	*I"Soprano 2. vel Alto	*	*	*I"Soprano	*	*
*clefF4	*clefG2	*	*clefF4	*	*	*clefG2	*	*	*clefG2	*	*	*clefG2	*	*
*	*	*	*	*	*	*ITrd7c12	*	*	*	*	*	*	*	*
*k[f#c#g#]	*k[f#c#g#]	*	*k[f#c#g#]	*	*	*k[f#c#g#]	*	*	*k[f#c#g#]	*	*	*k[f#c#g#]	*	*
*A:	*A:	*	*A:	*	*	*A:	*	*	*A:	*	*	*A:	*	*
*M4/4	*M4/4	*	*M4/4	*	*	*M4/4	*	*	*M4/4	*	*	*M4/4	*	*
*met(c)	*met(c)	*	*met(c)	*	*	*met(c)	*	*	*met(c)	*	*	*met(c)	*	*
!	!	!LO:DY:rj:b=2	!	!	!LO:DY:rj:b	!	!	!	!	!	!	!LO:TX:a:t=Psalmus 111.	!	!
4E\	4r	f	4E\	Be-	f	4r	.	.	4r	.	.	4r	.	.
=1	=1	=1	=1	=1	=1	=1	=1	=1	=1	=1	=1	=1	=1	=1
1A	1r	.	2.A\	-a-	.	1r	.	.	1r	.	.	1r	.	.
.	.	.	4A\	-tus	.	.	.	.	.	.	.	.	.	.
=2	=2	=2	=2	=2	=2	=2	=2	=2	=2	=2	=2	=2	=2	=2
2AA/	2r	.	2AA/	vir	.	2r	.	.	2r	.	.	2r	.	.
2r	4r	.	4r	.	.	4r	.	.	4r	.	.	4r	.	.
*	*	*	*	*ij	*	*	*	*	*	*	*	*	*	*
!	!	!LO:DY:rj	!	!	!	!	!	!LO:DY:rj:b	!	!	!LO:DY:rj:b	!	!	!LO:DY:rj:b
.	4cc# 4a\	f	4A\	Be-	.	4c# 4A\	Be-	f	4a\	Be-	f	4cc#\	Be-	f
=3	=3	=3	=3	=3	=3	=3	=3	=3	=3	=3	=3	=3	=3	=3
[1A [1AA	1ee 1cc#	.	2.A\	-a-	.	2.e 2.c#\	-a-	.	2.cc#\	-a-	.	2.ee\	-a-	.
.	.	.	4A\	-tus	.	4e 4c#\	-tus	.	4cc#\	-tus	.	4ee\	-tus	.
=4	=4	=4	=4	=4	=4	=4	=4	=4	=4	=4	=4	=4	=4	=4
2A] 2AA\]	2cc# 2a\	.	2A\	vir	.	2c# 2A/	vir	.	2a/	vir	.	2cc#\	vir	.
4r	4r	.	4r	.	.	4r	.	.	4r	.	.	4r	.	.
4C#/	4a 4e/	.	4C#/	qui	.	4A 4E/	qui	.	4e/	qui	.	4a/	qui	.
=5	=5	=5	=5	=5	=5	=5	=5	=5	=5	=5	=5	=5	=5	=5
*	*^	*	*	*	*	*^	*	*	*	*	*	*	*	*
4D/	4g#/	[1e	.	(4D/	ti-	.	4G#/	2.E\	ti-	.	2.e/	ti-	.	(4g#/	ti-	.
4C#/	4a/	.	.	4C#/	.	.	4A/	.	.	.	.	.	.	4a/	.	.
4BB/	4b/	.	.	4BB/)	.	.	4B/	.	.	.	.	.	.	4b/)	.	.
4AA/	4cc#/	.	.	4AA/	-met	.	4c#/	4E\	-met	.	4e/	met	.	4cc#/	-met	.
*	*	*	*	*	*	*	*v	*v	*	*	*	*	*	*	*	*
=6	=6	=6	=6	=6	=6	=6	=6	=6	=6	=6	=6	=6	=6	=6	=6
4.GG#/	4.dd/	2e\]	.	4.GG#/	Do-	.	4.d 4.E\	Do-	.	4.e/	Do-	.	4.dd\	Do-	.
8BB/	8b/	.	.	8BB/	-mi-	.	8B 8E\	-mi-	.	8e/	-mi-	.	8b\	-mi-	.
4D\	4g#/	4e\	.	4D\	-num	.	4G# 4E\	-num	.	4e/	-num	.	4g#/	-num	.
*	*	*	*	*	*	*	*	*	*	*	*Xij	*	*	*	*
4r	4e/	4ryy	.	4r	.	.	4r	.	.	4e/	Be-	.	4r	.	.
*	*v	*v	*	*	*	*	*	*	*	*	*	*	*	*	*
=7	=7	=7	=7	=7	=7	=7	=7	=7	=7	=7	=7	=7	=7	=7
1r	1a	.	1r	.	.	1r	.	.	2.a/	-a-	.	1r	.	.
.	.	.	.	.	.	.	.	.	4a/	-tus	.	.	.	.
=8	=8	=8	=8	=8	=8	=8	=8	=8	=8	=8	=8	=8	=8	=8
1r	2A/	.	2r	.	.	2r	.	.	2A/	vir	.	2r	.	.
.	4r	.	4r	.	.	4r	.	.	4r	.	.	4r	.	.
*	*	*	*	*	*	*	*	*	*	*ij	*	*	*	*
.	4cc# 4a\	.	4A\	Be-	.	4c# 4A\	Be-	.	4a/	Be-	.	4cc#\	Be-	.
=9	=9	=9	=9	=9	=9	=9	=9	=9	=9	=9	=9	=9	=9	=9
[1A [1AA	1ee 1cc#	.	2.A\	-a-	.	2.e 2.c#\	-a-	.	2.cc#\	-a-	.	2.ee\	-a-	.
.	.	.	4A\	-tus	.	4e 4c#\	-tus	.	4cc#\	-tus	.	4ee\	-tus	.
=10	=10	=10	=10	=10	=10	=10	=10	=10	=10	=10	=10	=10	=10	=10
*	*^	*	*	*	*	*	*	*	*	*	*	*	*	*
2A] 2AA\]	2cc# 2a\	2ryy	.	2A\	vir	.	2c# 2A\	vir	.	2a/	vir	.	2cc#\	vir	.
4r	4r	4ryy	.	4r	.	.	4r	.	.	4r	.	.	4r	.	.
4C#/	4ee/	4a\	.	4C#/	qui	.	4e 4A\	qui	.	4a/	qui	.	4ee\	qui	.
=11	=11	=11	=11	=11	=11	=11	=11	=11	=11	=11	=11	=11	=11	=11	=11
*	*	*	*	*	*	*	*^	*	*	*	*	*	*	*	*
4D/	[1ee	4g#\	.	(4D/	ti-	.	2.e/	(>4B\	ti-	.	(4g#/	ti-	.	2.ee\	ti-	.
4C#/	.	4a\	.	4C#/	.	.	.	4A\	.	.	4a/	.	.	.	.	.
4BB/	.	4b\	.	4BB/)	.	.	.	4G#\)	.	.	4b/)	.	.	.	.	.
4AA/	.	4cc#\	.	4AA/	-met	.	4e/	4A\	met	.	4cc#\	-met	.	4ee\	-met	.
=12	=12	=12	=12	=12	=12	=12	=12	=12	=12	=12	=12	=12	=12	=12	=12	=12
*	*	*	*^	*	*	*	*	*	*	*	*	*	*	*	*	*
4.GG#/	2ee/_	4.dd\	.	.	4.GG#/	Do-	.	4.e 4.B\	2ryy	Do-	.	4.dd\	Do-	.	4.ee\	Do-	.
8BB/	.	8b\	.	.	8BB/	-mi-	.	8e 8G#\	.	-mi-	.	8b\	-mi-	.	8ee\	-mi-	.
4D/	4ee/]	4g#\	.	.	4D/	-num	.	4e 4B\	4ryy	-num	.	4g#/	-num	.	4ee\	-num	.
!	!	!	!LO:DY:rj	!LO:DY:rj:b=2	!	!	!LO:DY:rj:b	!	!	!	!LO:DY:rj:b	!	!	!LO:DY:rj:b	!	!	!LO:DY:rj:b
4E\	4e/	4ryy	p	p	8E\	in	p	8E/	8E\	in	p	8e/	in	p	8e/	in	p
.	.	.	.	.	8E\	man-	.	8E/	8E\	man-	.	8e/	man-	.	8e/	man-	.
*	*	*	*v	*v	*	*	*	*	*	*	*	*	*	*	*	*	*
*	*v	*v	*	*	*	*	*v	*v	*	*	*	*	*	*	*	*
=13	=13	=13	=13	=13	=13	=13	=13	=13	=13	=13	=13	=13	=13	=13
1A 1E 1Cn	1e	.	2.Cn/	-da-	.	2.A 2.E/	-da-	.	2.e/	-da-	.	2.e/	-da-	.
.	.	.	4C/	-tis	.	4A 4E/	-tis	.	4e/	-tis	.	4e/	-tis	.
=14	=14	=14	=14	=14	=14	=14	=14	=14	=14	=14	=14	=14	=14	=14
1G# 1E 1BB	1e 1d	.	2BB/	e-	.	2G# 2E/	e-	.	2d/	e-	.	2e/	e-	.
.	.	.	2BB/	-jus	.	2G# 2E/	-jus	.	2d/	-jus	.	2e/	-jus	.
!!LO:LB:g=original
=15	=15	=15	=15	=15	=15	=15	=15	=15	=15	=15	=15	=15	=15	=15
1A 1E 1AA	1e 1cn	.	2.AA/	vo-	.	2.A 2.E/	vo-	.	2.cn/	vo-	.	2.e/	vo-	.
.	.	.	4AA/	-let	.	4A 4E/	-let	.	4c/	-let	.	4e/	-let	.
=16	=16	=16	=16	=16	=16	=16	=16	=16	=16	=16	=16	=16	=16	=16
*	*	*	*	*	*	*^	*	*	*	*	*	*	*	*
2G# 2E\	2e 2B/	.	4E\	ni-	.	4G# 4E/	2ryy	ni-	.	4B/	ni-	.	4e/	ni-	.
.	.	.	4E\	-mis	.	4G# 4E/	.	-mis	.	4B/	-mis	.	4e/	-mis	.
4r	4r	.	4r	.	.	4r	4ryy	.	.	4r	.	.	4r	.	.
4E\	4e/	.	8E\	in	.	8E/	8E\	in	.	8e/	in	.	8e/	in	.
.	.	.	8E\	man-	.	8E/	8E\	man-	.	8e/	man-	.	8e/	man-	.
*	*	*	*	*	*	*v	*v	*	*	*	*	*	*	*	*
=17	=17	=17	=17	=17	=17	=17	=17	=17	=17	=17	=17	=17	=17	=17
1A 1E 1Cn	1e	.	2.Cn/	-da-	.	2.A 2.E/	-da-	.	2.e/	-da-	.	2.e/	-da-	.
.	.	.	4C/	-tis	.	4A 4E/	-tis	.	4e/	-tis	.	4e/	-tis	.
=18	=18	=18	=18	=18	=18	=18	=18	=18	=18	=18	=18	=18	=18	=18
1E 1BB	1g# 1d	.	2BB/	e-	.	2B 2E/	e-	.	2d/	e-	.	2g#/	e-	.
.	.	.	2BB/	-jus	.	2B 2E/	-jus	.	2d/	-jus	.	2g#/	-jus	.
=19	=19	=19	=19	=19	=19	=19	=19	=19	=19	=19	=19	=19	=19	=19
*^	*	*	*	*	*	*	*	*	*	*	*	*	*	*
1E	2.AA\	1a 1cn	.	2.AA/	vo-	.	2.cn 2.E/	vo-	.	2.cn/	vo-	.	2.a/	vo-	.
.	4Cn\	.	.	4Cn/	-let	.	4A 4E/	-let	.	4c/	-let	.	4a/	-let	.
*v	*v	*	*	*	*	*	*	*	*	*	*	*	*	*	*
=20	=20	=20	=20	=20	=20	=20	=20	=20	=20	=20	=20	=20	=20	=20
4G# 4E\	4g# 4B/	.	4E\	ni-	.	4B 4G#\	ni-	.	4B/	ni-	.	4g#/	ni-	.
4G# 4E\	4e 4B/	.	4E\	-mis	.	4B 4G#\	-mis	.	4B/	-mis	.	4e/	-mis	.
*	*	*	*	*Xij	*	*	*	*	*	*Xij	*	*	*	*
2r	2r	.	2r	.	.	2r	.	.	2r	.	.	2r	.	.
=21	=21	=21	=21	=21	=21	=21	=21	=21	=21	=21	=21	=21	=21	=21
*	*	*^	*	*	*	*	*	*	*	*	*	*	*	*
*	*	*	*	*	*	*	*	*ij	*	*	*	*	*	*	*
!	!	!	!LO:DY:rj:b=2	!	!	!	!LO:TX:a:t=Solo Ten&colon; 1.	!	!LO:DY:rj:b	!LO:TX:a:t=Solo.	!	!LO:DY:rj:b	!	!	!
[1A [1AA	(8c#/L	p	p	1r	.	.	2c#\	Po-	p	2a/	Po-	p	1r	.	.
!	!	!	!	!	!	!	!	!	!LO:HP:b	!	!	!LO:HP:b	!	!	!
.	8e/	.	.	.	.	.	.	.	<	.	.	<	.	.	.
.	8a/	.	.	.	.	.	.	.	.	.	.	.	.	.	.
.	8e/J)	.	.	.	.	.	.	.	.	.	.	.	.	.	.
*	*rep	*	*	*	*	*	*	*	*	*	*	*	*	*	*
.	(8c#/L	.	.	.	.	.	4d\	-tens	.	4b/	-tens	.	.	.	.
.	8e/	.	.	.	.	.	.	.	.	.	.	.	.	.	.
.	8a/	.	.	.	.	.	4d#X\	in	[[	4b#X/	in	[[	.	.	.
.	8e/J)	.	.	.	.	.	.	.	.	.	.	.	.	.	.
*	*Xrep	*	*	*	*	*	*	*	*	*	*	*	*	*	*
*	*	*v	*v	*	*	*	*	*	*	*	*	*	*	*	*
=22	=22	=22	=22	=22	=22	=22	=22	=22	=22	=22	=22	=22	=22	=22
*	*rep	*	*	*	*	*	*	*	*	*	*	*	*	*
!	!	!	!	!	!	!LO:TX:t=P:problem:diminuendolike accent	!	!	!LO:TX:t=P:problem:diminuendolike accent	!	!	!	!	!
1A] 1AA]	(8c#/L	.	1r	.	.	(4.e^<\	ter-	.	(4.cc#^<\	ter-	.	1r	.	.
.	8e/	.	.	.	.	.	.	.	.	.	.	.	.	.
.	8a/	.	.	.	.	.	.	.	.	.	.	.	.	.
.	8e/J)	.	.	.	.	8c#\)	.	.	8a\)	.	.	.	.	.
.	(8c#/L	.	.	.	.	2A/	-ra	.	2cc#\	-ra	.	.	.	.
.	8e/	.	.	.	.	.	.	.	.	.	.	.	.	.
.	8a/	.	.	.	.	.	.	.	.	.	.	.	.	.
.	8e/J)	.	.	.	.	.	.	.	.	.	.	.	.	.
*	*Xrep	*	*	*	*	*	*	*	*	*	*	*	*	*
=23	=23	=23	=23	=23	=23	=23	=23	=23	=23	=23	=23	=23	=23	=23
1E 1EE	(8B/L	.	1r	.	.	4dn\	e-	.	4bn\	e-	.	1r	.	.
.	8d/	.	.	.	.	.	.	.	.	.	.	.	.	.
.	8g#/	.	.	.	.	4d\	-rit	.	4b\	-rit	.	.	.	.
.	8d/J)	.	.	.	.	.	.	.	.	.	.	.	.	.
*	*rep	*	*	*	*	*	*	*	*	*	*	*	*	*
.	(8B/L	.	.	.	.	8d\L	se-	.	8b\L	se-	.	.	.	.
.	8d/	.	.	.	.	16e\L	.	.	16cc#\L	.	.	.	.	.
.	.	.	.	.	.	16f#\JJ	.	.	16dd\JJ	.	.	.	.	.
.	8g#/	.	.	.	.	8e\L	-men	.	8cc#\L	-men	.	.	.	.
.	8d/J)	.	.	.	.	8d\J	.	.	8b\J	.	.	.	.	.
*	*Xrep	*	*	*	*	*	*	*	*	*	*	*	*	*
=24	=24	=24	=24	=24	=24	=24	=24	=24	=24	=24	=24	=24	=24	=24
.	.	.	.	.	.	8qqd/	.	.	8qqb/	.	.	.	.	.
[1A [1AA	(8c#/L	.	1r	.	.	4c#\	e-	.	4a\	e-	.	1r	.	.
.	8e/	.	.	.	.	.	.	.	.	.	.	.	.	.
.	8a/	.	.	.	.	4c#\	-jus	.	4a\	-jus	.	.	.	.
.	8e/J)	.	.	.	.	.	.	.	.	.	.	.	.	.
*	*rep	*	*	*	*	*	*	*	*	*	*	*	*	*
.	(8c#/L	.	.	.	.	2r	.	.	2r	.	.	.	.	.
.	8e/	.	.	.	.	.	.	.	.	.	.	.	.	.
.	8a/	.	.	.	.	.	.	.	.	.	.	.	.	.
.	8e/J)	.	.	.	.	.	.	.	.	.	.	.	.	.
*	*Xrep	*	*	*	*	*	*	*	*	*	*	*	*	*
=25	=25	=25	=25	=25	=25	=25	=25	=25	=25	=25	=25	=25	=25	=25
*	*rep	*	*	*	*	*	*	*	*	*	*	*	*	*
!	!	!	!	!	!	!	!	!LO:HP:a	!	!	!LO:DY:a	!	!	!
1A_ 1AA_	(8c#/L	.	1r	.	.	2c#\	Po-	<	2a/	Po-	<	1r	.	.
.	8e/	.	.	.	.	.	.	.	.	.	.	.	.	.
.	8a/	.	.	.	.	.	.	.	.	.	.	.	.	.
.	8e/J)	.	.	.	.	.	.	.	.	.	.	.	.	.
.	(8c#/L	.	.	.	.	4d\	-tens	.	4b/	-tens	.	.	.	.
.	8e/	.	.	.	.	.	.	.	.	.	.	.	.	.
.	8a/	.	.	.	.	4d#X\	in	[[	4b#X/	in	[[	.	.	.
.	8e/J)	.	.	.	.	.	.	.	.	.	.	.	.	.
*	*Xrep	*	*	*	*	*	*	*	*	*	*	*	*	*
=26	=26	=26	=26	=26	=26	=26	=26	=26	=26	=26	=26	=26	=26	=26
!	!	!	!	!	!	!	!	!	!	!	!LO:HP:a	!	!	!
2A] 2AA/]	(8c#/L	.	1r	.	.	(4.e\	ter-	.	(4.cc#\	ter-	>	1r	.	.
.	8e/	.	.	.	.	.	.	.	.	.	.	.	.	.
.	8a/	.	.	.	.	.	.	.	.	.	.	.	.	.
.	8e/J)	.	.	.	.	8c#\)	.	.	8a\)	.	.	.	.	.
2F# 2FF#/	(8c#/L	.	.	.	.	2A/	-ra	.	2f#/	-ra	]	.	.	.
.	8f#/	.	.	.	.	.	.	.	.	.	.	.	.	.
.	8a/	.	.	.	.	.	.	.	.	.	.	.	.	.
.	8f#/J)	.	.	.	.	.	.	.	.	.	.	.	.	.
=27	=27	=27	=27	=27	=27	=27	=27	=27	=27	=27	=27	=27	=27	=27
!	!	!	!	!	!	!LO:TX:t=P:problem:diminuendolike accent	!	!	!LO:TX:t=P:problem:diminuendolike accent	!	!	!	!	!
1B 1BB	(8d#X/L	.	1r	.	.	8f#^\L	e-	.	8dd#X^\L	e-	.	1r	.	.
.	8f#/	.	.	.	.	8e\J	.	.	8cc#\J	.	.	.	.	.
.	8a/	.	.	.	.	8d#X\L	-rit	.	8b\L	-rit	.	.	.	.
.	8f#/J)	.	.	.	.	8c#\J	.	.	8a\J	.	.	.	.	.
*	*rep	*	*	*	*	*	*	*	*	*	*	*	*	*
!	!	!	!	!	!	!LO:TX:t=P:problem:diminuendolike accent	!	!	!LO:TX:t=P:problem:diminuendolike accent	!	!	!	!	!
.	(8d#/L	.	.	.	.	8d#^\L	se-	.	8b^\L	se-	.	.	.	.
.	8f#/	.	.	.	.	8c#\J	.	.	8a\J	.	.	.	.	.
.	8a/	.	.	.	.	8B\L	-men	.	8g#/L	-men	.	.	.	.
.	8f#/J)	.	.	.	.	8A\J	.	.	8f#/J	.	.	.	.	.
*	*Xrep	*	*	*	*	*	*	*	*	*	*	*	*	*
=28	=28	=28	=28	=28	=28	=28	=28	=28	=28	=28	=28	=28	=28	=28
.	.	.	.	.	.	8qqA/	.	.	8qqf#/	.	.	.	.	.
[1E [1EE	(8B/L	.	1r	.	.	4G#\	e-	.	4e/	e-	.	1r	.	.
.	8e/	.	.	.	.	.	.	.	.	.	.	.	.	.
.	8g#/	.	.	.	.	4G#\	-jus	.	4e/	-jus	.	.	.	.
.	8e/J)	.	.	.	.	.	.	.	.	.	.	.	.	.
*	*rep	*	*	*	*	*	*	*	*	*	*	*	*	*
.	(8B/L	.	.	.	.	2r	.	.	2r	.	.	.	.	.
.	8e/	.	.	.	.	.	.	.	.	.	.	.	.	.
.	8g#/	.	.	.	.	.	.	.	.	.	.	.	.	.
.	8e/J)	.	.	.	.	.	.	.	.	.	.	.	.	.
*	*Xrep	*	*	*	*	*	*	*	*	*	*	*	*	*
=29	=29	=29	=29	=29	=29	=29	=29	=29	=29	=29	=29	=29	=29	=29
1E_ 1EE_	(8B/L	.	1r	.	.	4.d\	ge-	.	4.b\	ge-	.	1r	.	.
.	8dn/	.	.	.	.	.	.	.	.	.	.	.	.	.
.	8g#/	.	.	.	.	.	.	.	.	.	.	.	.	.
.	8d/J)	.	.	.	.	8c#\	-ne-	.	8a#X\	-ne-	.	.	.	.
*	*rep	*	*	*	*	*	*	*	*	*	*	*	*	*
.	(8B/L	.	.	.	.	8d\L	-ra-	.	8b\L	-ra-	.	.	.	.
.	8d/	.	.	.	.	16e\L	.	.	16cc#\L	.	.	.	.	.
.	.	.	.	.	.	16f#\JJ	.	.	16dd\JJ	.	.	.	.	.
.	8g#/	.	.	.	.	8e\L	.	.	8cc#\L	.	.	.	.	.
!LO:TX:b:t=VS.	!	!	!	!	!	!	!	!	!	!	!	!	!	!
.	8d/J)	.	.	.	.	8d\J	.	.	8b\J	.	.	.	.	.
*	*Xrep	*	*	*	*	*	*	*	*	*	*	*	*	*
!!LO:PB:g=original
=30	=30	=30	=30	=30	=30	=30	=30	=30	=30	=30	=30	=30	=30	=30
1E_ 1EE_	(8c#/L	.	1r	.	.	8c#\L	.	.	8an/L	.	.	1r	.	.
.	8e/	.	.	.	.	8A\	.	.	8e/	.	.	.	.	.
.	8a/	.	.	.	.	8E\J	.	.	8c#/J	.	.	.	.	.
.	8e/J)	.	.	.	.	8A\	-ti-	.	8e/	-ti-	.	.	.	.
*	*rep	*	*	*	*	*	*	*	*	*	*	*	*	*
.	(8c#/L	.	.	.	.	8C#/L	-o	.	8A/L	-o	.	.	.	.
.	8e/	.	.	.	.	8E/J	.	.	8c#/J	.	.	.	.	.
.	8a/	.	.	.	.	8A\L	re-	.	8e/L	re-	.	.	.	.
.	8e/J)	.	.	.	.	8c#\J	.	.	8a/J	.	.	.	.	.
*	*Xrep	*	*	*	*	*	*	*	*	*	*	*	*	*
=31	=31	=31	=31	=31	=31	=31	=31	=31	=31	=31	=31	=31	=31	=31
1E] 1EE]	(8B/L	.	1r	.	.	4.d\	-cto-	.	4.b\	-cto-	.	1r	.	.
.	8d/	.	.	.	.	.	.	.	.	.	.	.	.	.
.	8g#/	.	.	.	.	.	.	.	.	.	.	.	.	.
.	8d/J)	.	.	.	.	8c#\	.	.	8a#X\	.	.	.	.	.
*	*rep	*	*	*	*	*	*	*	*	*	*	*	*	*
.	(8B/L	.	.	.	.	8d\L	.	.	8b\L	.	.	.	.	.
.	8d/	.	.	.	.	16e\L	.	.	16cc#\L	.	.	.	.	.
.	.	.	.	.	.	16f#\JJ	.	.	16dd\JJ	.	.	.	.	.
.	8g#/	.	.	.	.	8e\L	-rum	.	8cc#\L	-rum	.	.	.	.
.	8d/J)	.	.	.	.	8d\J	.	.	8b\J	.	.	.	.	.
*	*Xrep	*	*	*	*	*	*	*	*	*	*	*	*	*
=32	=32	=32	=32	=32	=32	=32	=32	=32	=32	=32	=32	=32	=32	=32
1A 1AA	(8c#/L	.	1r	.	.	8c#\	Be-	.	8an/	Be-	.	1r	.	.
.	8e/	.	.	.	.	8A\	-ne-	.	8e/	-ne-	.	.	.	.
.	8a/	.	.	.	.	8E/L	-di-	.	8c#/L	-di-	.	.	.	.
.	8e/J)	.	.	.	.	8A/J	.	.	8e/J	.	.	.	.	.
*	*rep	*	*	*	*	*	*	*	*	*	*	*	*	*
.	(8c#/L	.	.	.	.	8C#/L	-ce-	.	8A/L	-ce-	.	.	.	.
.	8e/	.	.	.	.	8E/	.	.	8c#/	.	.	.	.	.
.	8a/	.	.	.	.	8A/J	.	.	8e/J	.	.	.	.	.
!	!	!	!	!	!	!	!	!	!LO:TX:t=P:problem:skreślona nuta	!	!	!	!	!
.	8e/J)	.	.	.	.	8c#\	-tur	.	8a\	tur	.	.	.	.
*	*Xrep	*	*	*	*	*	*	*	*	*	*	*	*	*
=33	=33	=33	=33	=33	=33	=33	=33	=33	=33	=33	=33	=33	=33	=33
2Gn 2GGn/	(8c#/L	.	1r	.	.	4.e\	ge-	.	4.cc#\	ge-	.	1r	.	.
.	8e/	.	.	.	.	.	.	.	.	.	.	.	.	.
.	8a/	.	.	.	.	.	.	.	.	.	.	.	.	.
.	8e/J)	.	.	.	.	8d#X\	-ne-	.	8b#X\	-ne-	.	.	.	.
2F# 2FF#/	(8c#/L	.	.	.	.	8e\L	-ra-	.	8cc#\L	-ra-	.	.	.	.
.	8e/	.	.	.	.	16f#\L	.	.	16dd\L	.	.	.	.	.
.	.	.	.	.	.	16gn\JJ	.	.	16ee\JJ	.	.	.	.	.
.	8a#X/	.	.	.	.	8f#\L	.	.	8dd\L	.	.	.	.	.
.	8e/J)	.	.	.	.	8e\J	.	.	8cc#\J	.	.	.	.	.
=34	=34	=34	=34	=34	=34	=34	=34	=34	=34	=34	=34	=34	=34	=34
1B 1BB	(8d/L	.	1r	.	.	8dn\L	.	.	8bn\L	.	.	1r	.	.
.	8f#/	.	.	.	.	8e\	.	.	8cc#\	.	.	.	.	.
.	8b/	.	.	.	.	8f#\J	.	.	8dd\J	.	.	.	.	.
.	8f#/J)	.	.	.	.	8e\	-ti-	.	8cc#\	-ti-	.	.	.	.
*	*rep	*	*	*	*	*	*	*	*	*	*	*	*	*
.	(8d/L	.	.	.	.	8d\L	-o	.	8b/L	-o	.	.	.	.
.	8f#/	.	.	.	.	8c#\J	.	.	8a/J	.	.	.	.	.
.	8b/	.	.	.	.	8B\L	re-	.	8g#/L	re-	.	.	.	.
.	8f#/J)	.	.	.	.	8d\J	.	.	8f#/J	.	.	.	.	.
*	*Xrep	*	*	*	*	*	*	*	*	*	*	*	*	*
=35	=35	=35	=35	=35	=35	=35	=35	=35	=35	=35	=35	=35	=35	=35
[1E [1EE	(8c#/L	.	1r	.	.	4.c#\	-cto-	.	4.e/	-cto-	.	1r	.	.
.	8e/	.	.	.	.	.	.	.	.	.	.	.	.	.
.	8a/	.	.	.	.	.	.	.	.	.	.	.	.	.
.	8e/J)	.	.	.	.	8B#X\	.	.	8d#X/	.	.	.	.	.
*	*rep	*	*	*	*	*	*	*	*	*	*	*	*	*
.	(8c#/L	.	.	.	.	4c#\	.	.	8e/L	.	.	.	.	.
.	8e/	.	.	.	.	.	.	.	8a/J	.	.	.	.	.
.	8a/	.	.	.	.	8e\L	-rum	.	8g#/L	-rum	.	.	.	.
.	8e/J)	.	.	.	.	8d\J	.	.	8f#/J	.	.	.	.	.
*	*Xrep	*	*	*	*	*	*	*	*	*	*	*	*	*
=36	=36	=36	=36	=36	=36	=36	=36	=36	=36	=36	=36	=36	=36	=36
1E] 1EE]	(8c#/L	.	1r	.	.	8c#\	Be-	.	8e/	Be-	.	1r	.	.
.	8e/	.	.	.	.	8B#X\	-ne-	.	8d#X/	-ne-	.	.	.	.
.	8a/	.	.	.	.	8c#\L	-di-	.	8e/L	-di-	.	.	.	.
.	8e/J)	.	.	.	.	8d\J	.	.	8f#/J	.	.	.	.	.
.	(8B/L	.	.	.	.	8c#\L	-ce-	.	8e/L	-ce-	.	.	.	.
.	8d/	.	.	.	.	8Bn\	.	.	8dn/	.	.	.	.	.
.	8g#/	.	.	.	.	8A\	.	.	8c#/	.	.	.	.	.
.	8d/J)	.	.	.	.	8G#\J	.	.	8B/J	.	.	.	.	.
=37	=37	=37	=37	=37	=37	=37	=37	=37	=37	=37	=37	=37	=37	=37
(4A 4AA\	(8c#/L	.	1r	.	.	4A\	-tur	.	4A/	-tur	.	1r	.	.
.	8e/	.	.	.	.	.	.	.	.	.	.	.	.	.
4E\	8a/	.	.	.	.	4r	.	.	4r	.	.	.	.	.
.	8e/J)	.	.	.	.	.	.	.	.	.	.	.	.	.
*	*rep	*	*	*	*	*	*	*	*	*	*	*	*	*
4C#\	(8c#/L	.	.	.	.	2r	.	.	2r	.	.	.	.	.
.	8e/	.	.	.	.	.	.	.	.	.	.	.	.	.
4AA\)	8a/	.	.	.	.	.	.	.	.	.	.	.	.	.
.	8e/J)	.	.	.	.	.	.	.	.	.	.	.	.	.
*	*Xrep	*	*	*	*	*	*	*	*	*	*	*	*	*
=38	=38	=38	=38	=38	=38	=38	=38	=38	=38	=38	=38	=38	=38	=38
[1E [1EE	(8B/L	.	1r	.	.	4.d\	ge-	.	4.b\	ge-	.	1r	.	.
.	8d/	.	.	.	.	.	.	.	.	.	.	.	.	.
.	8g#/	.	.	.	.	.	.	.	.	.	.	.	.	.
.	8d/J)	.	.	.	.	8c#\	-ne-	.	8a#X\	-ne-	.	.	.	.
*	*rep	*	*	*	*	*	*	*	*	*	*	*	*	*
.	(8B/L	.	.	.	.	8d\L	-ra-	.	8b\L	-ra-	.	.	.	.
.	8d/	.	.	.	.	16e\L	.	.	16cc#\L	.	.	.	.	.
.	.	.	.	.	.	16f#\JJ	.	.	16dd\JJ	.	.	.	.	.
.	8g#/	.	.	.	.	8e\L	.	.	8cc#\L	.	.	.	.	.
.	8d/J)	.	.	.	.	8d\J	.	.	8b\J	.	.	.	.	.
*	*Xrep	*	*	*	*	*	*	*	*	*	*	*	*	*
=39	=39	=39	=39	=39	=39	=39	=39	=39	=39	=39	=39	=39	=39	=39
1E_ 1EE_	(8c#/L	.	1r	.	.	8c#\L	.	.	8an/L	.	.	1r	.	.
.	8e/	.	.	.	.	8A\	.	.	8e/	.	.	.	.	.
.	8a/	.	.	.	.	8E\J	.	.	8c#/J	.	.	.	.	.
.	8e/J)	.	.	.	.	8A/	-ti-	.	8e/	-ti-	.	.	.	.
*	*rep	*	*	*	*	*	*	*	*	*	*	*	*	*
.	(8c#/L	.	.	.	.	8C#/L	-o	.	8A/L	-o	.	.	.	.
.	8e/	.	.	.	.	8E/J	.	.	8c#/J	.	.	.	.	.
.	8a/	.	.	.	.	8A\L	re-	.	8e/L	re-	.	.	.	.
.	8e/J)	.	.	.	.	8c#\J	.	.	8a/J	.	.	.	.	.
*	*Xrep	*	*	*	*	*	*	*	*	*	*	*	*	*
=40	=40	=40	=40	=40	=40	=40	=40	=40	=40	=40	=40	=40	=40	=40
1E] 1EE]	(8B/L	.	1r	.	.	4.d\	-cto-	.	4.b\	-cto-	.	1r	.	.
.	8d/	.	.	.	.	.	.	.	.	.	.	.	.	.
.	8g#/	.	.	.	.	.	.	.	.	.	.	.	.	.
.	8d/J)	.	.	.	.	8c#\	.	.	8a#X\	.	.	.	.	.
*	*rep	*	*	*	*	*	*	*	*	*	*	*	*	*
.	(8B/L	.	.	.	.	8d\L	.	.	8b\L	.	.	.	.	.
.	8d/	.	.	.	.	16e\L	.	.	16cc#\L	.	.	.	.	.
.	.	.	.	.	.	16f#\JJ	.	.	16dd\JJ	.	.	.	.	.
.	8g#/	.	.	.	.	8e\L	-rum	.	8cc#\L	-rum	.	.	.	.
.	8d/J)	.	.	.	.	8d\J	.	.	8b\J	.	.	.	.	.
*	*Xrep	*	*	*	*	*	*	*	*	*	*	*	*	*
=41	=41	=41	=41	=41	=41	=41	=41	=41	=41	=41	=41	=41	=41	=41
1A 1AA	(8c#/L	.	1r	.	.	8c#\	Be-	.	8an/	Be-	.	1r	.	.
.	8e/	.	.	.	.	8A/	-ne-	.	8e/	-ne-	.	.	.	.
.	8a/	.	.	.	.	8E/L	-di-	.	8c#/L	-di-	.	.	.	.
.	8e/J)	.	.	.	.	8A/J	.	.	8e/J	.	.	.	.	.
*	*rep	*	*	*	*	*	*	*	*	*	*	*	*	*
.	(8c#/L	.	.	.	.	8C#/L	-ce-	.	8A/L	-ce-	.	.	.	.
.	8e/	.	.	.	.	8E/	.	.	8c#/	.	.	.	.	.
.	8a/	.	.	.	.	8A/J	.	.	8e/J	.	.	.	.	.
.	8e/J)	.	.	.	.	8c#\	-tur	.	8a/	-tur	.	.	.	.
*	*Xrep	*	*	*	*	*	*	*	*	*	*	*	*	*
=42	=42	=42	=42	=42	=42	=42	=42	=42	=42	=42	=42	=42	=42	=42
2Gn 2GGn/	(8c#/L	.	1r	.	.	4.e\	ge-	.	4.cc#\	ge-	.	1r	.	.
.	8e/	.	.	.	.	.	.	.	.	.	.	.	.	.
.	8a/	.	.	.	.	.	.	.	.	.	.	.	.	.
.	8e/J)	.	.	.	.	8d#X\	-ne-	.	8b#X\	-ne-	.	.	.	.
2F# 2FF#/	(8c#/L	.	.	.	.	8e\L	-ra	.	8cc#\L	-ra-	.	.	.	.
.	8e/	.	.	.	.	16f#\L	.	.	16dd\L	.	.	.	.	.
.	.	.	.	.	.	16gn\JJ	.	.	16ee\JJ	.	.	.	.	.
.	8a#X/	.	.	.	.	8f#\L	.	.	8dd\L	.	.	.	.	.
.	8e/J)	.	.	.	.	8e\J	.	.	8cc#\J	.	.	.	.	.
!!LO:LB:g=original
=43	=43	=43	=43	=43	=43	=43	=43	=43	=43	=43	=43	=43	=43	=43
1B 1BB	(8d/L	.	1r	.	.	8d\L	.	.	8bn\L	.	.	1r	.	.
.	8f#/	.	.	.	.	8e\	.	.	8cc#\	.	.	.	.	.
.	8b/	.	.	.	.	8f#\J	.	.	8dd\J	.	.	.	.	.
.	8f#/J)	.	.	.	.	8e\	-ti-	.	8cc#\	-ti-	.	.	.	.
*	*rep	*	*	*	*	*	*	*	*	*	*	*	*	*
.	(8d/L	.	.	.	.	8d\L	-o	.	8b/L	-o	.	.	.	.
.	8f#/	.	.	.	.	8c#\J	.	.	8a/J	.	.	.	.	.
.	8b/	.	.	.	.	8B\L	re-	.	8g#/L	re-	.	.	.	.
.	8f#/J)	.	.	.	.	8d\J	.	.	8f#/J	.	.	.	.	.
*	*Xrep	*	*	*	*	*	*	*	*	*	*	*	*	*
=44	=44	=44	=44	=44	=44	=44	=44	=44	=44	=44	=44	=44	=44	=44
[1E [1EE	(8c#/L	.	1r	.	.	4.c#\	-cto-	.	4.e/	-cto-	.	1r	.	.
.	8e/	.	.	.	.	.	.	.	.	.	.	.	.	.
.	8a/	.	.	.	.	.	.	.	.	.	.	.	.	.
.	8e/J)	.	.	.	.	8B#X\	.	.	8d#X/	.	.	.	.	.
*	*rep	*	*	*	*	*	*	*	*	*	*	*	*	*
.	(8c#/L	.	.	.	.	4c#\	.	.	8e/L	.	.	.	.	.
.	8e/	.	.	.	.	.	.	.	8a/J	.	.	.	.	.
.	8a/	.	.	.	.	8e\L	-rum	.	8g#/L	-rum	.	.	.	.
.	8e/J)	.	.	.	.	8d\J	.	.	8f#/J	.	.	.	.	.
*	*Xrep	*	*	*	*	*	*	*	*	*	*	*	*	*
=45	=45	=45	=45	=45	=45	=45	=45	=45	=45	=45	=45	=45	=45	=45
1E] 1EE]	(8c#/L	.	1r	.	.	8c#\	Be-	.	8e/	Be-	.	1r	.	.
.	8e/	.	.	.	.	8B#X\	-ne-	.	8d#X/	-ne-	.	.	.	.
.	8a/	.	.	.	.	8c#\L	-di-	.	8e/L	-di-	.	.	.	.
.	8e/J)	.	.	.	.	8d\J	.	.	8f#/J	.	.	.	.	.
.	(8B/L	.	.	.	.	8c#\L	-ce-	.	8e/L	-ce-	.	.	.	.
.	8d/	.	.	.	.	8Bn\	.	.	8dn/	.	.	.	.	.
.	8g#/	.	.	.	.	8A\	.	.	8c#/	.	.	.	.	.
.	8d/J)	.	.	.	.	8G#\J	.	.	8B/J	.	.	.	.	.
=46	=46	=46	=46	=46	=46	=46	=46	=46	=46	=46	=46	=46	=46	=46
!	!	!LO:DY:rj	!	!	!LO:DY:rj:b	!	!	!	!	!	!	!	!	!
2.A\	4a 4c#/	f	2.A\	Glo-	f	4A/	-tur	.	4A/	-tur	.	1r	.	.
*	*	*	*	*	*	*	*Xij	*	*	*	*	*	*	*
.	4r	.	.	.	.	4r	.	.	4r	.	.	.	.	.
.	2r	.	.	.	.	2r	.	.	2r	.	.	.	.	.
4A\	.	.	4A\	-ri-	.	.	.	.	.	.	.	.	.	.
=47	=47	=47	=47	=47	=47	=47	=47	=47	=47	=47	=47	=47	=47	=47
2AA/	2r	.	2AA/	-a	.	1r	.	.	1r	.	.	1r	.	.
2r	(8c#/L	.	2r	.	.	.	.	.	.	.	.	.	.	.
.	8e/	.	.	.	.	.	.	.	.	.	.	.	.	.
.	8a/	.	.	.	.	.	.	.	.	.	.	.	.	.
.	8cc#/J)	.	.	.	.	.	.	.	.	.	.	.	.	.
!	!	!	!	!	!	!	!	!LO:DY:b	!	!	!LO:DY:b	!	!	!LO:DY:b
.	.	.	.	.	.	.	.	f	.	.	f	.	.	f
=48	=48	=48	=48	=48	=48	=48	=48	=48	=48	=48	=48	=48	=48	=48
*	*	*	*	*ij	*	*	*	*	*	*ij	*	*	*	*
!	!	!	!	!	!LO:DY:rj:b	!	!	!	!	!	!	!	!	!
[1A [1AA	1ee 1cc#	.	2.A\	Glo-	f	2.e 2.c#\	Glo-	.	2.cc#\	Glo-	.	2.ee\	Glo-	.
.	.	.	4A\	-ri-	.	4e 4c#\	-ri-	.	4cc#\	-ri-	.	4ee\	-ri-	.
=49	=49	=49	=49	=49	=49	=49	=49	=49	=49	=49	=49	=49	=49	=49
2A] 2AA\]	2cc# 2a\	.	2A\	-a	.	2c# 2A\	-a	.	2a/	-a	.	2cc#\	-a	.
4r	4r	.	4r	.	.	4r	.	.	4r	.	.	4r	.	.
4C#/	4a [4e/	.	4C#/	Glo-	.	4A [4E/	Glo-	.	[4e/	Glo-	.	4a/	Glo-	.
=50	=50	=50	=50	=50	=50	=50	=50	=50	=50	=50	=50	=50	=50	=50
*	*^	*	*	*	*	*^	*	*	*	*	*	*	*	*
4D/	4g#/	1e_	.	4D/	.	.	4G#/	1E_	.	.	1e_	.	.	4g#/	.	.
4C#/	4a/	.	.	4C#/	.	.	4A/	.	.	.	.	.	.	4a/	.	.
4BB/	4b/	.	.	4BB/	.	.	4B/	.	.	.	.	.	.	4b/	.	.
4AA/	4cc#/	.	.	4AA/	.	.	4c#/	.	.	.	.	.	.	4cc#/	.	.
*	*	*	*	*	*	*	*v	*v	*	*	*	*	*	*	*	*
=51	=51	=51	=51	=51	=51	=51	=51	=51	=51	=51	=51	=51	=51	=51	=51
4.GG#/	4.dd/	2e\_	.	4.GG#/	.	.	4.d 4.E\]	.	.	4.e/]	.	.	4.dd\	.	.
8BB/	8b/	.	.	8BB/	-ri-	.	8B 8E\	-ri-	.	8e/	-ri-	.	8b\	-ri-	.
4D\	4g#/	4e\]	.	4D/	-a	.	4G# 4E/	-a	.	4e/	-a	.	4g#/	-a	.
*	*	*	*	*	*	*	*	*	*	*	*Xij	*	*	*	*
4r	4e/	4ryy	.	4r	.	.	4r	.	.	4e/	et	.	4r	.	.
*	*v	*v	*	*	*	*	*	*	*	*	*	*	*	*	*
=52	=52	=52	=52	=52	=52	=52	=52	=52	=52	=52	=52	=52	=52	=52
1r	2.a/	.	1r	.	.	1r	.	.	2.a/	di-	.	1r	.	.
.	4a/	.	.	.	.	.	.	.	4a/	-vi-	.	.	.	.
=53	=53	=53	=53	=53	=53	=53	=53	=53	=53	=53	=53	=53	=53	=53
1r	2A/	.	2r	.	.	2r	.	.	4A/	-ti-	.	2r	.	.
.	.	.	.	.	.	.	.	.	4A/	-ae	.	.	.	.
.	4r	.	4r	.	.	4r	.	.	4r	.	.	4r	.	.
*	*	*	*	*	*	*	*	*	*	*ij	*	*	*	*
.	4cc# 4a\	.	4A\	et	.	4c# 4A\	et	.	4a/	et	.	4cc#\	et	.
=54	=54	=54	=54	=54	=54	=54	=54	=54	=54	=54	=54	=54	=54	=54
[1A [1AA	1ee 1cc#	.	2.A\	di-	.	2.e 2.c#\	di-	.	2.cc#\	di-	.	2.ee\	di-	.
.	.	.	4A\	-vi-	.	4e 4c#\	-vi-	.	4cc#\	-vi-	.	4ee\	-ci-	.
=55	=55	=55	=55	=55	=55	=55	=55	=55	=55	=55	=55	=55	=55	=55
2A] 2AA\]	2cc# 2a\	.	4A\	-ti-	.	4c# 4A\	-ti-	.	4a\	-ti-	.	4cc#\	-ti-	.
.	.	.	4A\	-ae	.	4c# 4A\	-ae	.	4a\	-ae	.	4cc#\	-ae	.
4r	4r	.	4r	.	.	4r	.	.	4r	.	.	4r	.	.
4C#/	4ee 4a\	.	4C#/	in	.	4e 4A\	in	.	4a\	in	.	4ee\	in	.
=56	=56	=56	=56	=56	=56	=56	=56	=56	=56	=56	=56	=56	=56	=56
*	*^	*	*	*	*	*^	*	*	*	*	*	*	*	*
4D/	[1ee	4g#\	.	(4D/	do-	.	2.e/	(>4B\	do-	.	(4g#\	do-	.	2.ee\	do-	.
4C#/	.	4a\	.	4C#/	.	.	.	4A\	.	.	4a\	.	.	.	.	.
4BB/	.	4b\	.	4BB/)	.	.	.	4G#\)	.	.	4b\)	.	.	.	.	.
4AA/	.	4cc#\	.	4AA/	-mo	.	4e/	4A\	mo	.	4cc#\	-mo	.	4ee\	-mo	.
=57	=57	=57	=57	=57	=57	=57	=57	=57	=57	=57	=57	=57	=57	=57	=57	=57
4.GG#/	2ee/_	4.dd\	.	(4.GG#/	e-	.	2e/	(>4.B\	e-	.	(4.dd\	e-	.	2ee\	e-	.
8BB/	.	8b\	.	8BB/)	.	.	.	8G#\)	.	.	8b\)	.	.	.	.	.
4D\	4ee/]	4g#\	.	4D/	-jus	.	4e/	4B\	-jus	.	4g#/	-jus	.	4ee\	-jus	.
4B 4E\	8ee/L	4g#\	.	8E\	et	.	8e 8B\	4ryy	et	.	8g#/	et	.	8ee\	et	.
!	!	!	!	!	!	!	!	!	!	!	!	!	!	!LO:TX:t=P:problem:skreślony takt	!	!
.	8dd/J	.	.	8E\	ju-	.	8e 8B\	.	ju-	.	8g#/	ju-	.	8dd\	ju-	.
*	*v	*v	*	*	*	*	*v	*v	*	*	*	*	*	*	*	*
!!LO:PB:g=original
=58	=58	=58	=58	=58	=58	=58	=58	=58	=58	=58	=58	=58	=58	=58
1A 1AA	[1cc# [1a	.	4.A\	-sti-	.	4.e 4.c#\	-sti-	.	4.a/	-sti-	.	4.cc#\	-sti-	.
.	.	.	8A\	-ti-	.	8e 8c#\	-ti-	.	8a/	-ti-	.	8cc#\	-ti-	.
.	.	.	4A\	-a	.	4e 4c#\	-a	.	4a/	-a	.	4cc#\	-a	.
.	.	.	8A\	et	.	8e 8c#\	et	.	8a/	et	.	8cc#\	et	.
.	.	.	8A\	ju-	.	8e 8c#\	ju-	.	8a/	ju-	.	8cc#\	ju-	.
=59	=59	=59	=59	=59	=59	=59	=59	=59	=59	=59	=59	=59	=59	=59
1F# 1FF#	1cc#] 1a_	.	4.F#X\	-sti-	.	4.f# 4.c#\	-sti-	.	4.a/	-sti-	.	4.cc#\	-sti-	.
.	.	.	8F#\	-ti-	.	8c# 8A\	-ti-	.	8a/	-ti-	.	8cc#\	-ti-	.
.	.	.	4F#\	-a	.	4c# 4A\	-a	.	4a/	-a	.	4cc#\	-a	.
.	.	.	8F#\	et	.	8c# 8A\	et	.	8a/	et	.	8cc#\	et	.
.	.	.	8F#\	ju-	.	8c# 8A\	ju-	.	8a/	ju-	.	8cc#\	ju-	.
=60	=60	=60	=60	=60	=60	=60	=60	=60	=60	=60	=60	=60	=60	=60
[1D [1DD	[1ff# 1a_	.	4.D\	-sti-	.	4.f# 4.A\	-sti-	.	4.a/	-sti-	.	4.ff#\	-sti-	.
.	.	.	8D\	-ti-	.	8f# 8A\	-ti-	.	8a/	-ti-	.	8ff#\	-ti-	.
.	.	.	2D\	-a	.	2f# 2A\	-a	.	2a/	-a	.	2ff#\	-a	.
=61	=61	=61	=61	=61	=61	=61	=61	=61	=61	=61	=61	=61	=61	=61
2D] 2DD/_	2ff#] 2a\]	.	2D\	e-	.	2f# 2A\	e-	.	2a/	e-	.	2ff#\	e-	.
4D 4DD/]	4dd 4f#\	.	4D\	-jus	.	4d 4F#\	-jus	.	4f#/	-jus	.	4dd\	-jus	.
4r	4r	.	4r	.	.	4r	.	.	4r	.	.	4r	.	.
=62	=62	=62	=62	=62	=62	=62	=62	=62	=62	=62	=62	=62	=62	=62
[1E [1EE	4g# 4e\	.	[1E	ma-	.	(4G# 4E\	ma-	.	(4e/	ma-	.	(4g#\	ma-	.
.	4a 4f#\	.	.	.	.	4A 4F#\	.	.	4f#/	.	.	4a\	.	.
.	4b 4g#\	.	.	.	.	4B 4G#\	.	.	4g#/	.	.	4b\	.	.
.	4cc# 4a\	.	.	.	.	4c# 4A\	.	.	4a/	.	.	4cc#\	.	.
=63	=63	=63	=63	=63	=63	=63	=63	=63	=63	=63	=63	=63	=63	=63
1E] 1EE]	4dd 4b\	.	2E\]	.	.	4d 4B\	.	.	4b/	.	.	4dd\	.	.
.	4cc# 4a#X\	.	.	.	.	4c# 4A#X\)	.	.	4a#X/)	.	.	4cc#\)	.	.
.	4ee 4cc#\	.	4E\	net	.	4e 4c#\	-net	.	4cc#\	-net	.	4ee\	-net	.
.	4dd 4b\	.	4E\	in	.	4d 4B\	in	.	4b\	in	.	4dd\	in	.
=64	=64	=64	=64	=64	=64	=64	=64	=64	=64	=64	=64	=64	=64	=64
1F# 1FF#	1cc# 1an	.	4.F#\	sae-	.	4.c# 4.An\	sae-	.	4.an\	sae-	.	4.cc#\	sae-	.
.	.	.	8F#\	-cu-	.	8c# 8A\	-cu-	.	8a\	-cu-	.	8cc#\	-cu-	.
.	.	.	2F#\	-lum	.	2c# 2A\	-lum	.	2a\	-lum	.	2cc#\	-lum	.
=65	=65	=65	=65	=65	=65	=65	=65	=65	=65	=65	=65	=65	=65	=65
[1D 1DD	1ff# 1a	.	4.D\	se-	.	4.f# 4.A\	se-	.	4.a\	se-	.	4.ff#\	se-	.
.	.	.	8D\	-cu-	.	8f# 8A\	-cu-	.	8a\	-cu-	.	8ff#\	-cu-	.
.	.	.	2D\	-li	.	2f# 2A\	-li	.	2a\	-li	.	2ff#\	-li	.
=66	=66	=66	=66	=66	=66	=66	=66	=66	=66	=66	=66	=66	=66	=66
*	*	*	*	*	*	*^	*	*	*	*	*	*	*	*
4D\]	4b 4g#\	.	(4D\	ma-	.	2e/	(>4B\	ma-	.	(4g#\	ma-	.	(4b\	ma-	.
4C#\	4cc# 4a\	.	4C#\)	.	.	.	4A\)	.	.	4a\)	.	.	4cc#\)	.	.
4BB\	4dd 4b\	.	4BB\	-net	.	4e/	4G#\	net	.	4b\	-net	.	4dd\	-net	.
4C#\	4cc# 4a\	.	4C#\	in	.	4e/	4A\	in	.	4a\	in	.	4cc#\	in	.
*	*	*	*	*	*	*v	*v	*	*	*	*	*	*	*	*
=67	=67	=67	=67	=67	=67	=67	=67	=67	=67	=67	=67	=67	=67	=67
1D	1b 1a 1f#	.	4.D\	sae-	.	4.d 4.A\	sae-	.	4.f#/	sae-	.	4.b\	sae-	.
.	.	.	8D\	-cu-	.	8d 8A\	-cu-	.	8f#/	-cu-	.	8b\	-cu-	.
.	.	.	2D\	-lum	.	2d 2A\	-lum	.	2f#/	-lum	.	2b\	-lum	.
=68	=68	=68	=68	=68	=68	=68	=68	=68	=68	=68	=68	=68	=68	=68
*	*^	*	*	*	*	*^	*	*	*	*	*	*	*	*
1E	1ee	4a\	.	2.E\	se-	.	2.d/	(>4A\	se-	.	2.e/	se-	.	2.ee\	se-	.
.	.	4g#\	.	.	.	.	.	4G#\	.	.	.	.	.	.	.	.
.	.	4f#\	.	.	.	.	.	4F#\)	.	.	.	.	.	.	.	.
.	.	4g#\	.	4E\	cu-	.	4d/	4G#\	cu-	.	4e/	-cu-	.	4ee\	-cu-	.
*	*v	*v	*	*	*	*	*v	*v	*	*	*	*	*	*	*	*
=69	=69	=69	=69	=69	=69	=69	=69	=69	=69	=69	=69	=69	=69	=69
2A 2AA;\	2cc# 2a;\	.	2AA;/	-li	.	2c# 2A;\	-li	.	2e;/	-li	.	2cc#;\	-li	.
*	*	*	*	*Xij	*	*	*	*	*	*Xij	*	*	*	*
2r	2r	.	2r	.	.	2r	.	.	2r	.	.	2r	.	.
==	==	==	==	==	==	==	==	==	==	==	==	==	==	==
*-	*-	*-	*-	*-	*-	*-	*-	*-	*-	*-	*-	*-	*-	*-
!!!system-decoration: (s1,s2,s3,s4,p5)
!!!RDF**kern: > = above
!!!RDF**kern: < = below
!!!ENC: Andrzej Kubiczek
!!!END: 2021-06-06
!!!ENC: Marcin Jachim
!!!END: 2021-05-26
